!!!OTL@@DE: Der schw&auml;bische Ritter an seinen Sohn
!!!COM: Volksweise
!!!ODT: ~1795
!!!OMD: M&auml;ssig im Sprechton
!!!LYR: Friedrich Leopold Graf zu Stolberg
!!!LDT: 1774
!!!OCL: Erk, Ludwig
!!!GCO: Deutscher Liederschatz, Band 1
**kern	**kern	**kern
*staff3	*staff2	*staff1
*Ipiano	*Ipiano	*Ivox
=1-	=1-	=1-
*clefF4	*clefG2	*clefG2
*k[f#c#]	*k[f#c#]	*k[f#c#]
*D:	*D:	*D:
*met(C)	*met(C)	*met(C)
*M4/4	*M4/4	*M4/4
*MM72	*MM72	*MM72
4DD/ 4D/	4.F#/ 4.A/ 4.d/	4.d/
4AA/	.	.
.	8F#/ 8A/ 8d/	8d/
4FF#/	8.F#/ 8.A/ 8.d/L	8.d/
.	16d/Jk	16d/
*	*^	*
4DD/	8f#/L	4A\	8f#/
.	8d/J	.	8d/
*	*v	*v	*
=2	=2	=2
4AAA/	2A/ 2c#/ 2e/ 2a/	2a/
8.CC#/L	.	.
16EE/Jk	.	.
4AA/	2r	2r
8.C#/L	.	.
16E/Jk	.	.
=3	=3	=3
*	*^	*
4A\	4.a/	4c#\ 4e\	4.a/
4AA\ 4A\	.	4c#\ 4e\	.
.	8a/	.	8a/
4AA\ 4A\	8g#/L	4c#\ 4e\	8g#/
.	8a/	.	8a/
4AA\ 4A\	8b/	4c#\ 4e\	8b\
.	8a/J	.	8a/
*	*v	*v	*
=4	=4	=4
4DD/	2A/ 2d/ 2f#/	2f#/
8.FF#/L	.	.
16AA/Jk	.	.
4D\	4F#/ 4A/ 4d/	2r
*	*^	*
4r	8.f#/L	4A\ 4d\	.
.	16g/Jk	.	.
=5	=5	=5	=5
4FF#/ 4F#/	4.a/	4A\ 4d\	4.a/
4FF#/ 4F#/	.	4A\ 4d\	.
.	8f#/	.	8f#/
4FF#/ 4F#/	4d/	4A\	8d/
.	.	.	8f#/
4FF#/ 4F#/	4a/	4A\ 4d\	8a/
.	.	.	8dd\
*	*v	*v	*
=6	=6	=6
4GG/ 4G/	4A#/ 4e/ 4a#/	(4cc#\
8.GG/L	2B/ 2d/ 2b/	4b\)
16D/Jk	.	.
4G\	.	4r
4GG/	4B/ 4d/ 4g/	8g/
.	.	8b\
=7	=7	=7
4AA/	4d/ 4f#/	4.b\
4AA/	4A/ 4d/ 4f#/	.
.	.	8a/
*	*^	*
4AA/ 4E/	4.a/	4A\ 4c#\	4.a/
4AA/ 4E/	.	4A\ 4c#\	.
.	8g/	.	8g/
*	*v	*v	*
=8	=8	=8
(4AA#/ 4E/	(4c#/ 4g/	(4g/
4BB/) 4D/	4d/) 4f#/	4f#/)
4BB/	2r	2r
8.AAn/L	.	.
16GG/Jk	.	.
=9	=9	=9
4FF#/	4A/ 4d/ 4a/	4.a/
4FF#/ 4F#/	4A/ 4d/ 4a/	.
.	.	8b\
4FF#/ 4F#/	4A/ 4d/ 4a/	8cc#\
.	.	8dd\
4FF#/ 4F#/	4A/ 4d/ 4a/	8ee\
.	.	8dd\
=10	=10	=10
4GG/ 4G/	4A#/ 4e/ 4a#/	(4cc#\
8.GG/L	2B/ 2d/ 2b/	4b\)
16D/Jk	.	.
4G\	.	4r
4GG/	4B/ 4e/ 4g/	8g/
.	.	8b\
=11	=11	=11
4AA/	4A/ 4d/ 4f#/	4.b\
4AA/	4A/ 4d/ 4f#/	.
.	.	8a/
*^	*^	*
2G/	4AAA\	2e/	(4d\	4.a/
.	4AA\	.	4c#\)	.
.	.	.	.	8c#/
*v	*v	*	*	*
*	*v	*v	*
=12	=12	=12
4DD/	4F#/ 4d/	2d/
4DD/ 4AA/ 4D/	4F#/ 4d/	.
4DD/ 4AA/ 4D/	4F#/ 4d/	2r
4r	4r	.
==	==	==
*-	*-	*-
!!!ENC: Craig Stuart Sapp
!!!END: 2004/06/08/
!!!EFL: 094l/651
